pages/zim/img/icon/play-icon.svg

<svg width="20" height="20" viewBox="0 0 20 20" fill="none" xmlns="http://www.w3.org/2000/svg">
<path d="M9.41594 0C9.80362 0 10.1982 0 10.5859 0C10.7244 0.0138456 10.8697 0.0346141 11.0082 0.0484597C12.642 0.228453 14.1511 0.740741 15.5149 1.66147C17.8687 3.25372 19.3225 5.45518 19.8417 8.25891C19.9109 8.63967 19.9455 9.02735 20.0009 9.41502C20.0009 9.8027 20.0009 10.1973 20.0009 10.585C19.9871 10.6404 19.9732 10.6957 19.9663 10.7511C19.8971 11.7826 19.6548 12.7795 19.274 13.7418C17.6472 17.8332 13.3758 20.4223 9.00058 19.9515C7.36679 19.7785 5.8507 19.2662 4.49382 18.3385C1.71778 16.4348 0.208605 13.7902 0.0216889 10.4258C-0.0821533 8.6189 0.312447 6.90204 1.1778 5.31672C2.72851 2.49221 5.09611 0.775355 8.25983 0.166147C8.64059 0.0830737 9.02827 0.0484597 9.41594 0ZM7.28372 5.65594C7.28372 8.56352 7.28372 11.4365 7.28372 14.3371C9.7967 12.8903 12.282 11.4503 14.8019 9.99654C12.282 8.54275 9.78978 7.10973 7.28372 5.65594Z" fill="white"/>
</svg>

<svg width="20" height="20" fill="none" xmlns="http://www.w3.org/2000/svg"><path d="M9.416 0h1.17c.138.014.284.035.422.048 1.634.18 3.143.693 4.507 1.613 2.354 1.593 3.808 3.794 4.327 6.598.069.38.104.768.159 1.156v1.17c-.014.055-.028.11-.035.166a9.901 9.901 0 01-.692 2.99c-1.627 4.092-5.898 6.681-10.273 6.21-1.634-.172-3.15-.685-4.507-1.613C1.718 16.436.209 13.79.022 10.427a9.386 9.386 0 011.156-5.11C2.728 2.493 5.096.777 8.26.167 8.64.083 9.028.048 9.416 0zM7.284 5.656v8.681c2.513-1.447 4.998-2.887 7.518-4.34-2.52-1.454-5.012-2.887-7.518-4.341z" fill="#fff"/></svg>
